icons/burger.svg

<?xml version="1.0" encoding="UTF-8" standalone="no"?>
<!-- Created with Inkscape (http://www.inkscape.org/) -->

<svg
   xmlns:dc="http://purl.org/dc/elements/1.1/"
   xmlns:cc="http://creativecommons.org/ns#"
   xmlns:rdf="http://www.w3.org/1999/02/22-rdf-syntax-ns#"
   xmlns:svg="http://www.w3.org/2000/svg"
   xmlns="http://www.w3.org/2000/svg"
   xmlns:sodipodi="http://sodipodi.sourceforge.net/DTD/sodipodi-0.dtd"
   xmlns:inkscape="http://www.inkscape.org/namespaces/inkscape"
   version="1.0"
   width="2048"
   height="1706"
   viewBox="0 0 2048 1706"
   id="svg5496"
   sodipodi:version="0.32"
   inkscape:version="0.48.5 r10040"
   sodipodi:docname="burger.svg"
   inkscape:output_extension="org.inkscape.output.svg.inkscape">
  <metadata
     id="metadata5594">
    <rdf:RDF>
      <cc:Work
         rdf:about="">
        <dc:format>image/svg+xml</dc:format>
        <dc:type
           rdf:resource="http://purl.org/dc/dcmitype/StillImage" />
        <dc:title />
      </cc:Work>
    </rdf:RDF>
  </metadata>
  <sodipodi:namedview
     inkscape:window-height="1018"
     inkscape:window-width="1920"
     inkscape:pageshadow="2"
     inkscape:pageopacity="0.0"
     borderopacity="1.0"
     bordercolor="#666666"
     pagecolor="#ffffff"
     id="base"
     showgrid="true"
     showguides="true"
     inkscape:guide-bbox="true"
     inkscape:zoom="0.25"
     inkscape:cx="526.056"
     inkscape:cy="1144.9384"
     inkscape:window-x="-8"
     inkscape:window-y="-8"
     inkscape:current-layer="svg5496"
     inkscape:window-maximized="1">
    <sodipodi:guide
       orientation="horizontal"
       position="384,-256"
       id="guide5596" />
    <inkscape:grid
       type="xygrid"
       id="grid3462"
       empspacing="5"
       visible="true"
       enabled="true"
       snapvisiblegridlinesonly="true"
       spacingx="128px"
       spacingy="128px" />
  </sodipodi:namedview>
  <title
     id="title7">Burger</title>
  <defs
     id="defs5498">
    <inkscape:perspective
       sodipodi:type="inkscape:persp3d"
       inkscape:vp_x="0 : 500 : 1"
       inkscape:vp_y="0 : 1000 : 0"
       inkscape:vp_z="1000 : 500 : 1"
       inkscape:persp3d-origin="500 : 333.33333 : 1"
       id="perspective3931" />
    <font
       horiz-adv-x="1024"
       id="font3933"
       inkscape:label="font 1"
       horiz-origin-x="0"
       horiz-origin-y="0"
       vert-origin-x="45"
       vert-origin-y="90"
       vert-adv-y="90">
      <font-face
         units-per-em="1024"
         id="font-face3935"
         font-family="Your Icons" />
      <missing-glyph
         d="M0,0h1000v1024h-1000z"
         id="missing-glyph3937" />
      <glyph
         glyph-name="glyph 1"
         id="glyph3781"
         unicode="U+F000"
         d="M 40.000001,864 960,864 960,744 40.000001,744 z m 0,-294 L 960,570 960,450 40.000001,450 z M 40,289 l 920,0 0,-120 -920,0 z" />
      <hkern
         u1="s"
         u2="s"
         k="480.8347826086956"
         id="hkern3794" />
    </font>
  </defs>
  <g
     id="layer1"
     transform="translate(2,450)" />
  <rect
     style="fill:#000000;fill-opacity:1;stroke:none"
     id="rect3865"
     width="0"
     height="0"
     x="0"
     y="1434" />
  <path
     style="fill:#000000;fill-opacity:1;fill-rule:evenodd;stroke:none"
     d="m 170.66667,1364.8 1706.66663,0 c 94.5494,0 170.6667,76.0876 170.6667,170.6 0,94.5124 -76.1173,170.6 -170.6667,170.6 l -1706.66662,0 C 76.11734,1706 6.6666666e-6,1629.9124 6.6666666e-6,1535.4 6.6666666e-6,1440.8876 76.11734,1364.8 170.66667,1364.8 z"
     id="path3135"
     inkscape:connector-curvature="0" />
  <path
     style="fill:#000000;fill-opacity:1;fill-rule:evenodd;stroke:none"
     d="m 170.66667,682.4 1706.66663,0 C 1971.8827,682.4 2048,758.4876 2048,853 c 0,94.5124 -76.1173,170.6 -170.6667,170.6 l -1706.66662,0 C 76.117333,1023.6 0,947.5124 0,853 0,758.4876 76.117333,682.4 170.66667,682.4 z"
     id="path3133"
     inkscape:connector-curvature="0" />
  <path
     style="fill:#000000;fill-opacity:1;fill-rule:evenodd;stroke:none"
     d="M 170.66667,0 1877.3333,0 C 1971.8827,0 2048,76.0876 2048,170.59999 2048,265.1124 1971.8827,341.2 1877.3333,341.2 l -1706.66662,0 C 76.11734,341.2 6.6666666e-6,265.1124 6.6666666e-6,170.59999 6.6666666e-6,76.0876 76.11734,0 170.66667,0 z"
     id="rect3080-1-4"
     inkscape:connector-curvature="0" />
</svg>

<svg xmlns="http://www.w3.org/2000/svg" version="1" width="2048" height="1706" viewBox="0 0 2048 1706">
    <title>Burger</title>
    <path d="M170.667 1364.8h1706.666c94.55 0 170.667 76.088 170.667 170.6s-76.117 170.6-170.667 170.6H170.667C76.117 1706 0 1629.912 0 1535.4s76.117-170.6 170.667-170.6zM170.667 682.4h1706.666c94.55 0 170.667 76.088 170.667 170.6s-76.117 170.6-170.667 170.6H170.667C76.117 1023.6 0 947.512 0 853s76.117-170.6 170.667-170.6zM170.667 0h1706.666C1971.883 0 2048 76.088 2048 170.6s-76.117 170.6-170.667 170.6H170.667C76.117 341.2 0 265.112 0 170.6S76.117 0 170.667 0z"
          fill-rule="evenodd"/>
</svg>
